X:1
T:Title
%%score { ( 1 4 ) | ( 2 3 ) }
L:1/8
M:6/8
K:Eb
V:1 treble nm="Grand Piano"
V:4 treble 
V:2 bass 
V:3 bass 
V:1
 z3 z[Q:1/4=87] B>c- | cG>F E [DF]2 | [AB]B->[FB-] [EB-] [DB]2 | BG>F E [DF]2 | %4
[M:5/8] [AB]B->[FB-] [EB][DB]- |[M:1/8] [DB] | [EB] |[M:3/4] c>c [Ec] [EG]2 G | %8
 .[B,DB]2 [B,FA] [B,EG]2 [EB] | c>c [Ec] [EG]2 G | .[B,DB]2 [B,FA] [B,EG]2 [B,EG] | %11
 [=B,DG]>[EG] [DFG] [CE]2 [CEF] | [=B,DG]>[EG] [DFG] [EG]2 G | .B2 z [B,A] GF | B6 | B6- | B4 z2 | %17
 .B2 z2 z2 |[M:2/4] E4 |] %19
V:2
 z3 z [G,E]>[A,E]- | [A,E][E,E]->[E,-A,E] [E,G,-] G,2 | .D2 z/ A,/ G, [B,,B,]2 | %3
 [CDA][E,E]->[E,-A,E] [E,G,-] G,2 |[M:5/8] D z z/ A,/ G,[B,,F,]- |[M:1/8] [B,,F,] | [E,G,] | %7
[M:3/4] z2 z C3 | z F D, E,2 [E,G,] | z2 z C3 | z F D, E,2 E, | G,2 z2 z2 | z z/ C/ .=B,,2 z E | %13
 z[K:treble] F G[K:bass]F, z A, | G,2 A,B, A,G, | z[K:treble] D .E2 ED | E3[K:bass] [A,,A,]3 | %17
 B,,2- [B,,B,E]2 z D |[M:2/4] [E,G,B,]4 |] %19
V:3
 x6 | z B,2 z [B,,B,]2- | [B,,B,] E,2- E, z z | z B,2 z [B,,B,]2- |[M:5/8] [B,,B,] E,3 z | %5
[M:1/8] x | x |[M:3/4] [C,G,]2 .[C,G,]2 z E | B,,2 z2 z2 | [C,G,]2 .[C,G,]2 z E | B,,2 z2 z2 | %11
 z z/ C/ =B,, C,2 A, | G,2 z [C,C]3 | B,,4[K:treble][K:bass] B,2 | x6 | B,,3[K:treble] B,3 | %16
 x3[K:bass] x3 | G,2 z [B,,A,]3 |[M:2/4] x4 |] %19
V:4
 x6 | x6 | z [B,G]2 z3 | x6 |[M:5/8] z [B,G]2 z2 |[M:1/8] x | x |[M:3/4] E2 z2 z2 | x6 | E2 z2 z2 | %10
 x6 | x6 | x6 | [B,D]3 D3 | z E FG FE | z F G[FA] GF | G3 [Ec]3 | E-[EB] G [EF]2 B |[M:2/4] x4 |] %19

